X:67
T:Prince George For Ever THO1.067
M:C|
L:1/8
Z:vmp. Peter Dunk 2012.from a transcription by Fynn Titford-Mock 2006
B:Thompson's Compleat Collection of 200 Favourite Country Dances Vol.I,1758
Q:1/2=70
K:A
e/e/e ed c/c/c cB|Aedc {d}Tc2B2|ecdB cABG|Afe^d e2E2:|
|:BE dB ceAc|BE dB ceAc|BE dB cfed|c2TB2 A4:|
|:Ac-ce dBcG|Ac-ce dfBc|Ac-ce dBcG|AfB^d e2E2:|
|:ec ce/c/ dfcd|ce ed/c/ dfBd|ec ce/c/ da g/f/e/d/|c2TB2 A4:|

